X: 25
T: Irish Washerwoman, The
Z: Karson
S: https://thesession.org/tunes/92#setting52588
R: jig
M: 6/8
L: 1/8
K: Gmaj
(dc)|:BGG DGG|BGB dcB|cAA EAA|cAc edc|
BGG DGG|BGB dcB|cBc Adc|1 BGG G2 A:|2 BGG G2 f||
|:gdd Bdd|gdg bag|fdd Add|fdf agf|
egg dgg|cgg B3|(cBc) (Adc)|1 BGG G2 f:|2 BGG G2 A||

%-------------------- TUNE SEPARATOR --------------------%

